Obsidian-SemiLight/actions/16s/adjustcol.svg

<svg viewBox="0 0 16 16" xmlns="http://www.w3.org/2000/svg"><path d="m6 2v5h-2v-1l-2 2 2 2v-1h2v5h1 3v-1-4h2v1l2-2-2-2v1h-2v-5h-3zm1 1h2v3h-2zm0 4h2v2h-2zm0 3h2v3h-2z" fill="#4d4d4d"/></svg>

<svg xmlns="http://www.w3.org/2000/svg" viewBox="0 0 16 16">
  <defs id="defs3051">
    <style type="text/css" id="current-color-scheme">
      .ColorScheme-Text {
        color:#4d4d4d;
      }
      </style>
  </defs>
 <path style="fill:currentColor;fill-opacity:1;stroke:none" 
     d="M 6 2 L 6 7 L 4 7 L 4 6 L 2 8 L 4 10 L 4 9 L 6 9 L 6 14 L 7 14 L 10 14 L 10 13 L 10 9 L 12 9 L 12 10 L 14 8 L 12 6 L 12 7 L 10 7 L 10 2 L 7 2 L 6 2 z M 7 3 L 9 3 L 9 6 L 7 6 L 7 3 z M 7 7 L 9 7 L 9 9 L 7 9 L 7 7 z M 7 10 L 9 10 L 9 13 L 7 13 L 7 10 z "
     class="ColorScheme-Text"
     />
</svg>
